X: 161
T: Just so in the North          E.
C: Ignatius Sancho 1775
%R: reel
B: "Minuets Cotillons & Country Dances", 1775 p.16 #1
S: https://www.bl.uk/collection-items/minuets-cotillons-and-country-dances-by-ignatius-sancho#
Z: 2020 John Chambers <jc:trillian.mit.edu>
M: C
L: 1/8
K: G
% - - - - - - - - - - - - - - - - - - - - - - - - - - - - -
V: 1 brace=2 % staves=2
V: 2 clef=bass middle=d
% - - - - - - - - - - - - - - - - - - - - - - - - - - - - -
[V:1] |: G2g2 dBdB | G2g2 ecec | G2g2 dBdB | edcB AFED | G2g2 dBdB | G2g2 ecec | G2g2 ecBA | EcAF G2G,2 :|
[V:2] |: g4 G4 | g4 G4 | g4 G4 | c2G2 d4 | G4 g4 | G4 g4 | G2B2 c4 | A2d2 G4 :|
[V:1] |: g2b2 afed | e2g2 dBAG | c2ec B2dB | A2BG AFED | G2g2 dBdB | c2a2 fdfd | g2b2 ecec | BAGF G2G,2 :|
[V:2] |: g4 f4 | e4 B4 | e2c2 G2B2 | c2^c2 d4 | G4 g4 | a4 d4 | B2G2 c4 | A2d2 G4 :|
% - - - - - - - - - - - - - - - - - - - - - - - - - - - - -
%%begintext align
%% The first Second & third Cu. foot it hands round Six .| The same back again :| Lead down
%% two cu. foot it to your Partner Lead up and cast off .|. Lead thro' the third Cu. and cast up
%% Right and Left at top :|:
%%endtext

%%sep 1 1 500
%%sep 1 1 500

